svgs/samsung_music.svg

<svg width="24" height="24" viewBox="0 0 24 24" fill="none" xmlns="http://www.w3.org/2000/svg">
<path fill-rule="evenodd" clip-rule="evenodd" d="M10 2H13C17.9706 2 22 6.02944 22 11V13H19V11C19 7.68629 16.3137 5 13 5V17C13 19.7614 10.7614 22 8 22C5.23858 22 3 19.7614 3 17C3 14.2386 5.23858 12 8 12C8.7111 12 9.38754 12.1484 10 12.416V2ZM10 17C10 15.8954 9.10457 15 8 15C6.89543 15 6 15.8954 6 17C6 18.1046 6.89543 19 8 19C9.10457 19 10 18.1046 10 17Z" fill="#FFF1C0"/>
</svg>

<svg xmlns="http://www.w3.org/2000/svg" width="24" height="24" fill="none" viewBox="0 0 24 24"><path fill="#FFF1C0" fill-rule="evenodd" d="M10 2h3a9 9 0 0 1 9 9v2h-3v-2a6 6 0 0 0-6-6v12a5 5 0 1 1-3-4.584zm0 15a2 2 0 1 0-4 0 2 2 0 0 0 4 0" clip-rule="evenodd"/></svg>
